X:1
T:Title
%%score { ( 1 2 ) | ( 3 4 ) }
L:1/8
M:2/2
K:G
V:1 treble nm="Grand Piano"
V:2 treble 
V:3 treble 
V:4 treble 
V:1
 z4 z2[Q:1/4=104] z A | B2 B2 .B3 A | B2 B2 .B3 A | B2 d2 cc B2 |[M:3/4] [FA]6 |[M:1/4] [DF][EG] | %6
[M:4/4] [FA]2 [FA]2 [FA]2 [DF][EG] | [FA]2 [GB]2 [Ac]2 [Ac]2 | B2 G2 [CFA][CFA] [CDF]2 | %9
[M:3/4] [B,DG]6 |[M:1/4] G z |[M:4/4] [G,CE]2 [CEG]2 [Ec]2 [Ec]2 | c3 B B2 d2 | %13
 [Fd]2 [FA]2 [FA]2 [Fd]2 |[M:3/4] [DAc]3 [DGB] [DGB]2 |[M:1/4] G z | %16
[M:4/4] [G,CE]2 [CEG]2 [Ec]2 [Ge]2 | e3 d d2 B2 | [FA]4 [GB][GB] [CFA]2 |[M:3/4] [B,DG]6 | %20
[M:1/4] z2 |[M:4/4] z8 | z8 | A4 B4 | c3 B A2 Bc | d4 B4 | [FA]2 [FA]2 z2 [Fd]2 | e4 d2 [E^c]2 | %28
 [Fd]6 d2 | c3 B c2 B2 | A2 B2 c2 d2 | d3 ^c d2 =c2 | B2 c2 d2 B2 | [Ge]3 [Ge] [EGc]2 [Ge]2 | %34
 e2 d2 d2 B2 | [FA]4 [GB][GB] [CFA]2 |[M:3/4] [B,DG]6 |] %37
V:2
 z4 z2 G2 | z4 z2 G2 | z4 z2 G2 | x8 |[M:3/4] x6 |[M:1/4] x2 |[M:4/4] x8 | x8 | x8 |[M:3/4] x6 | %10
[M:1/4] [G,D]2 |[M:4/4] x8 | x8 | x8 |[M:3/4] x6 |[M:1/4] [G,D]2 |[M:4/4] x8 | x8 | x8 | %19
[M:3/4] x6 |[M:1/4] x2 |[M:4/4] x8 | x8 | x8 | x8 | x8 | x8 | x8 | x8 | x8 | x8 | x8 | x8 | x8 | %34
 x8 | x8 |[M:3/4] x6 |] %37
V:3
 z4 z2 B,C | [G,DG]2 [G,DG]2 [G,DG]2 B,C | [G,DG]2 [G,DG]2 [G,DG]2 B,C | %3
 [DG]2- [B,DG]2 [A,DF][A,DF] [G,DG]2 |[M:3/4][K:bass] [D,D]6 |[M:1/4] [D,A,]2 | %6
[M:4/4] [D,D]2 [D,D]2 [D,D]2 [D,A,]2 | [D,D]2 [D,D]2 [D,D]2 [D,D]2 | [DG]2 B,2[K:bass] D,D, D,2 | %9
[M:3/4] B,,6 |[M:1/4] z F |[M:4/4] C,2 C,2 [C,G,]2 [C,G,]2 | [G,E]3 [G,D] [G,D]2 [G,B,G]2 | %13
 [D,A,]2 [D,D]2 [D,D]2 [D,D]2 |[M:3/4] G,3 G, G,2 |[M:1/4] z F |[M:4/4] C,2 C,2 [C,G,]2 [C,C]2 | %17
 [G,CG]3 [G,B,G] [G,B,G]2 [G,DG]2 | [D,C]4 [D,D][D,D] D,2 |[M:3/4] G,,6 |[M:1/4][K:treble] D2 | %21
[M:4/4] G4 A4 | B3 A G2 G2 | F4 G4 | A3 G F2 [DG]-[A,DG] | [B,DG]4 [G,DG]4 | %26
 [D,D]2 [D,D]2 z2 [D,A,]2 | [G,B,G]4 [A,F]2[K:bass] [A,,A,]2 | [D,A,]6[K:treble] F2 | %29
 A3 ^G A2 =G2 | F2 G2 A2 B2 | B3 _B =B2 A2 | G2 A2 B2 [G,DG]2 | [C,C]3 [C,C] C,2 [C,C]2 | %34
 [G,CG]2 [G,B,G]2 [G,B,G]2 [G,DG]2 | [D,C]4 [D,D][D,D] D,2 |[M:3/4] G,,6 |] %37
V:4
 z4 z2 G,2 | z4 z2 G,2 | z4 z2 G,2 | .G,4 z4 |[M:3/4][K:bass] x6 |[M:1/4] x2 |[M:4/4] x8 | x8 | %8
 G,4[K:bass] z4 |[M:3/4] x6 |[M:1/4] B,,2 |[M:4/4] x8 | x8 | x8 |[M:3/4] x6 |[M:1/4] B,,2 | %16
[M:4/4] x8 | x8 | x8 |[M:3/4] x6 |[M:1/4][K:treble] x2 |[M:4/4] x8 | x8 | x8 | z4 z2 .G,2 | x8 | %26
 x8 | x6[K:bass] x2 | x6[K:treble] x2 | x8 | x8 | x8 | x8 | x8 | x8 | x8 |[M:3/4] x6 |] %37

